X:1
T:Erstanden ist III
T:Georg Vogler
T:Source : Catechismus---Würzburg---J.Volmari---1652. Editor : André Vierendeels (29/09/17).
T:Notes : Original clefs : G3, F4 Original note values have been halved Text Middle German 
T:Erstanden ist III
T:©
C:Georg Vogler
Z:©
%%score [ 1 2 ]
L:1/8
Q:1/4=89
M:2/2
K:F
V:1 treble nm="Soprano" snm="S"
V:2 bass nm="Bass" snm="B"
V:1
"^1)" F4 F2 c2 | A2 F2 G2 G2 | A4 c4 | B2 A2 G4 | F4 B4 | B2 B2 B2 A2 | c4 B2 A2 | G2 G2 F2 F2 | %8
w: Er- stan- den|ist der hei- lig|Christ, Jo|tri- * um-|phe, der|al- ler Welt ein|Trö- ster ist,|Jo tri- um- phe,|
w: Der Schlan- gen|Kopff zer- tret- ten|ist, Jo|tri- * um-|phe, zer-|knirscht hat ihn Herr|Je- sus Christ,|Jo tri- um- phe,|
 d3 c B2 A2 | G4 F4 |] %10
w: Sieg- Fried, Jo tri-|um- phe.|
w: Sieg- Fried, Jo tri-|um- phe.|
V:2
"^2)""^1)""^3)" F,4 D,2 C,2 | F,2 F,2 C,2 G,2 | F,,4 F,4 | B,,2 F,2 C,4 | F,4 z2 B,,2 | %5
w: Er- stan- den|ist der hei- lig|Christ, Jo|tri- * um-|phe, der|
w: Der from- me|Vat- ter A- bra-|ham, Jo|tri- * um-|phe, dein|
 _E,2 E,2 D,2 D,2 | C,4 G,,2 A,,2 | B,,2 C,2 F,,2 F,,2 | B,,3 A,, B,,2 F,2 | C,4 F,,4 |] %10
w: al ler Welt ein|Trö- ster ist,|Jo tri- um- phe,|Sieg- Fried, Jo tri-|um- phe.|
w: Feind mit Macht grosz|Gut ab- nahm,|Jo tri- um- phe,|Sieg- Fried, Jo tri-|um- phe.|

